public/avatar/body/97.svg

<svg xmlns:xlink="http://www.w3.org/1999/xlink" height="82" width="84.85" xmlns="http://www.w3.org/2000/svg"><g transform="translate(37.4 42.25)"><use height="38" transform="translate(-11.95 -17.45)" width="32.05" xlink:href="#a"/><use height="38.95" transform="translate(-12.45 -17.95)" width="33.05" xlink:href="#b"/><use height="6.1" transform="translate(-6.4 -17.05)" width="20.6" xlink:href="#c"/><use height="24.25" transform="translate(3.5 -1.55)" width="19.9" xlink:href="#d"/><use height="24.25" transform="matrix(-1 0 0 1 3.9 -1.55)" width="19.9" xlink:href="#d"/></g><defs><path d="M27.35 7.4q2.15 4.15 3.55 8.75 1.45 4.7 1.15 9.5-.35 4.95-4.2 8.1-3.8 3.2-8.75 4.05l-2.6.2q-3.6 0-7.05-1.15-4.65-1.6-7.1-5.5Q-.2 27.4.05 23q.2-4.4 2-9.3Q3.85 8.75 7 5.05 10.1 1.3 14.7.1l1.8-.1q1.9.05 3.7.8 4.75 2.05 7.15 6.6" fill="#9e5400" fill-rule="evenodd" transform="translate(-.05)" id="e"/><path d="M27.35 7.4Q24.95 2.85 20.2.8 17.55-.3 14.7.1 10.1 1.3 7 5.05q-3.15 3.7-4.95 8.65-1.8 4.9-2 9.3-.25 4.4 2.3 8.35 2.45 3.9 7.1 5.5 4.65 1.55 9.65.95 4.95-.85 8.75-4.05 3.85-3.15 4.2-8.1.3-4.8-1.15-9.5-1.4-4.6-3.55-8.75Z" fill="none" stroke="#000" stroke-linecap="round" stroke-linejoin="round" transform="translate(.45 .5)" id="f"/><path d="m6.35-14.3.7-2.15q4.05 1.2 7.15 5Q10-13.7 6.35-14.3m-3.4-2.75 3.6.45-3.05 2.05q-4.65.1-9.9 3.6 2.75-6.1 9.35-6.1" fill-rule="evenodd" transform="translate(6.4 17.05)" id="c"/><use height="38" width="32.05" xlink:href="#e" id="a"/><use height="38.95" width="33.05" xlink:href="#f" id="b"/><use height="24.25" width="19.9" xlink:href="#g" id="d"/><g id="g"><path d="M11.8 3.85q-.65.65-1.6.65-.95 0-1.6-.65-.65-.65-.65-1.6 0-.95.65-1.6Q9.25 0 10.2 0q.95 0 1.6.65.65.65.65 1.6 0 .95-.65 1.6" fill="#c95524" fill-rule="evenodd"/><path d="m16.7 5.95-.05-.25-.3-.2-3.1.25 3.7-1 .5.35.2 2.65-1.2.45-9.55 3.05 9.55-3.05-7.6 2.85 6 2.2 5.05 7.65-.4 1-.75.15q-3.05-.45-6 .65L8.8 24l-2.35.25-3.4-.85-2.3-.25L0 23.1v-.8l.75-.05q2.8-.05 5.55.85l.3.2 1.95-.35 2.65-.3q1.15-.25 1.15-.55l2-.7 1.9-.4 2.65.05-4.25-6.4.7-.3-8.45-3.1-.9-.2h-.05l10.75-4.1.05-.15v-.2l-.05-.65M1.55 9.4l-1.4.75-.15-.1v-.7l1.55.05" fill-rule="evenodd"/><path d="m13.25 5.75 3.1-.25.3.2.05.25-.3.3-6.35 1.2L9 8.7l-2.6.95-2.75-.1L.4 11.2l-.4-.1v-1.05l.15.1 1.4-.75q3.9-1.7 7.95-2.85l3.75-.8m-6.9 8.6q-.85 1.4-2.7 1.6l-.4-.15q-1.55-1.15-.2-2.55.2-.25.5-.4 1.9-.5 2.7 1.2l.1.3" fill="#fff" fill-rule="evenodd"/><path d="m16.7 5.95.05.65-.35-.35.3-.3m.05.85-.05.15-10.75 4.1H6l-.8.7q.3.8 1.2 1.1 1.75.55 2.55 2.15-.45 2.05-1.5 3.8-.35.55-.35 1.3l.1 1.75-.1.9-.8.35q-2.75-.9-5.55-.85L0 22.3v-2.4h.75q2.55-.1 5-1.1.9-.4.95-.9l.9-.4q-2 0-3.7-1-1.05-.65-2.25-1.05l-.9-.05-.65-.05H0v-2.1l.1.1 6.3-3.7L9 8.7l3.45-.8L16.3 7l.45-.2m-2.95 8 .85-.15 4.25 6.4-2.65-.05.8-.65q-1-.9-2.15-1.55-.55-.25-.75-.8-.2-.45-.1-.9l.4-1.75-.55.3-.1-.85m-7.45-.45-.1-.3q-.8-1.7-2.7-1.2-.3.15-.5.4-1.35 1.4.2 2.55l.4.15q1.85-.2 2.7-1.6" fill="#e3fbff" fill-rule="evenodd"/><path d="M16.75 6.6v.2l-.45.2-3.85.9L9 8.7l1.05-1.25 6.35-1.2.35.35M0 11.1l.4.1 3.25-1.65 2.75.1-6.3 3.7-.1-.1V11.1" fill="#9bb7c9" fill-rule="evenodd"/><path d="m6 11.05.9.2 8.45 3.1-.7.3-.85.15-1.9-.25q.25 1-.5 1.85l-.8.8-1.05 1.2q-.3.4-.2.9.1.7.6 1.25 1 .9 2.4 1.55 0 .3-1.15.55l-2.65.3-1.95.35-.3-.2.8-.35.1-.9-.1-1.75q0-.75.35-1.3 1.05-1.75 1.5-3.8-.8-1.6-2.55-2.15-.9-.3-1.2-1.1l.8-.7M0 17.6l2.95.05q1.15 1 2.55.6l1.2-.35q-.05.5-.95.9-2.45 1-5 1.1H0v-2.3" fill="#afcfe3" fill-rule="evenodd"/><path d="M0 15.35h.1l.65.05.9.05q1.2.4 2.25 1.05 1.7 1 3.7 1l-.9.4-1.2.35q-1.4.4-2.55-.6L0 17.6v-2.25" fill="#6d8b9e" fill-rule="evenodd"/><path d="M12.35 22.1q-1.4-.65-2.4-1.55-.5-.55-.6-1.25-.1-.5.2-.9l1.05-1.2.8-.8q.75-.85.5-1.85l1.9.25.1.85.55-.3-.4 1.75q-.1.45.1.9.2.55.75.8 1.15.65 2.15 1.55l-.8.65-1.9.4-2 .7" fill="#8299a8" fill-rule="evenodd"/><path d="m6.9 11.25 9.55-3.05" fill="none" stroke="#241a12" stroke-linecap="round" stroke-linejoin="round"/></g></defs></svg>

<?xml version="1.0" encoding="UTF-8" standalone="no"?>
<svg xmlns:xlink="http://www.w3.org/1999/xlink" height="82.0px" width="84.85px" xmlns="http://www.w3.org/2000/svg">
  <g transform="matrix(1.0, 0.0, 0.0, 1.0, 37.4, 42.25)">
    <use height="38.0" transform="matrix(1.0, 0.0, 0.0, 1.0, -11.95, -17.45)" width="32.05" xlink:href="#sprite0"/>
    <use height="38.95" transform="matrix(1.0, 0.0, 0.0, 1.0, -12.45, -17.95)" width="33.05" xlink:href="#sprite1"/>
    <use height="6.1" transform="matrix(1.0, 0.0, 0.0, 1.0, -6.4, -17.05)" width="20.6" xlink:href="#shape2"/>
    <use height="24.25" transform="matrix(1.0, 0.0, 0.0, 1.0, 3.5, -1.55)" width="19.9" xlink:href="#sprite2"/>
    <use height="24.25" transform="matrix(-1.0, 0.0, 0.0, 1.0, 3.9, -1.55)" width="19.9" xlink:href="#sprite2"/>
  </g>
  <defs>
    <g id="sprite0" transform="matrix(1.0, 0.0, 0.0, 1.0, -0.05, 0.0)">
      <use height="38.0" transform="matrix(1.0, 0.0, 0.0, 1.0, 0.05, 0.0)" width="32.05" xlink:href="#shape0"/>
    </g>
    <g id="shape0" transform="matrix(1.0, 0.0, 0.0, 1.0, -0.05, 0.0)">
      <path d="M27.35 7.4 Q29.5 11.55 30.9 16.15 32.35 20.85 32.05 25.65 31.7 30.6 27.85 33.75 24.05 36.95 19.1 37.8 L16.5 38.0 Q12.9 38.0 9.45 36.85 4.8 35.25 2.35 31.35 -0.2 27.4 0.05 23.0 0.25 18.6 2.05 13.7 3.85 8.75 7.0 5.05 10.1 1.3 14.7 0.1 L16.5 0.0 Q18.4 0.05 20.2 0.8 24.95 2.85 27.35 7.4" fill="#9e5400" fill-rule="evenodd" stroke="none"/>
    </g>
    <g id="sprite1" transform="matrix(1.0, 0.0, 0.0, 1.0, 0.45, 0.5)">
      <use height="38.95" transform="matrix(1.0, 0.0, 0.0, 1.0, -0.45, -0.5)" width="33.05" xlink:href="#shape1"/>
    </g>
    <g id="shape1" transform="matrix(1.0, 0.0, 0.0, 1.0, 0.45, 0.5)">
      <path d="M27.35 7.4 Q24.95 2.85 20.2 0.8 17.55 -0.3 14.7 0.1 10.1 1.3 7.0 5.05 3.85 8.75 2.05 13.7 0.25 18.6 0.05 23.0 -0.2 27.4 2.35 31.35 4.8 35.25 9.45 36.85 14.1 38.4 19.1 37.8 24.05 36.95 27.85 33.75 31.7 30.6 32.05 25.65 32.35 20.85 30.9 16.15 29.5 11.55 27.35 7.4 Z" fill="none" stroke="#000000" stroke-linecap="round" stroke-linejoin="round" stroke-width="1.0"/>
    </g>
    <g id="shape2" transform="matrix(1.0, 0.0, 0.0, 1.0, 6.4, 17.05)">
      <path d="M6.35 -14.3 L7.05 -16.45 Q11.1 -15.25 14.2 -11.45 10.0 -13.7 6.35 -14.3 M2.95 -17.05 L6.55 -16.6 3.5 -14.55 Q-1.15 -14.45 -6.4 -10.95 -3.65 -17.05 2.95 -17.05" fill="#000000" fill-rule="evenodd" stroke="none"/>
    </g>
    <g id="sprite2" transform="matrix(1.0, 0.0, 0.0, 1.0, 0.0, 0.0)">
      <use height="24.25" transform="matrix(1.0, 0.0, 0.0, 1.0, 0.0, 0.0)" width="19.9" xlink:href="#shape3"/>
    </g>
    <g id="shape3" transform="matrix(1.0, 0.0, 0.0, 1.0, 0.0, 0.0)">
      <path d="M11.8 3.85 Q11.15 4.5 10.2 4.5 9.25 4.5 8.6 3.85 7.95 3.2 7.95 2.25 7.95 1.3 8.6 0.65 9.25 0.0 10.2 0.0 11.15 0.0 11.8 0.65 12.45 1.3 12.45 2.25 12.45 3.2 11.8 3.85" fill="#c95524" fill-rule="evenodd" stroke="none"/>
      <path d="M16.7 5.95 L16.65 5.7 16.35 5.5 13.25 5.75 16.95 4.75 17.45 5.1 17.65 7.75 16.45 8.2 6.9 11.25 16.45 8.2 8.85 11.05 14.85 13.25 19.9 20.9 19.5 21.9 18.75 22.05 Q15.7 21.6 12.75 22.7 L8.8 24.0 6.45 24.25 3.05 23.4 0.75 23.15 0.0 23.1 0.0 22.3 0.75 22.25 Q3.55 22.2 6.3 23.1 L6.6 23.3 8.55 22.95 11.2 22.65 Q12.35 22.4 12.35 22.1 L14.35 21.4 16.25 21.0 18.9 21.05 14.65 14.65 15.35 14.35 6.9 11.25 6.0 11.05 5.95 11.05 16.7 6.95 16.75 6.8 16.75 6.6 16.7 5.95 M1.55 9.4 L0.15 10.15 0.0 10.05 0.0 9.35 1.55 9.4" fill="#000000" fill-rule="evenodd" stroke="none"/>
      <path d="M13.25 5.75 L16.35 5.5 16.65 5.7 16.7 5.95 16.4 6.25 10.05 7.45 9.0 8.7 6.4 9.65 3.65 9.55 0.4 11.2 0.0 11.1 0.0 10.05 0.15 10.15 1.55 9.4 Q5.45 7.7 9.5 6.55 L13.25 5.75 M6.35 14.35 Q5.5 15.75 3.65 15.95 L3.25 15.8 Q1.7 14.65 3.05 13.25 3.25 13.0 3.55 12.85 5.45 12.35 6.25 14.05 L6.35 14.35" fill="#ffffff" fill-rule="evenodd" stroke="none"/>
      <path d="M16.7 5.95 L16.75 6.6 16.4 6.25 16.7 5.95 M16.75 6.8 L16.7 6.95 5.95 11.05 6.0 11.05 5.2 11.75 Q5.5 12.55 6.4 12.85 8.15 13.4 8.95 15.0 8.5 17.05 7.45 18.8 7.1 19.35 7.1 20.1 L7.2 21.85 7.1 22.75 6.3 23.1 Q3.55 22.2 0.75 22.25 L0.0 22.3 0.0 19.9 0.75 19.9 Q3.3 19.8 5.75 18.8 6.65 18.4 6.7 17.9 L7.6 17.5 Q5.6 17.5 3.9 16.5 2.85 15.85 1.65 15.45 L0.75 15.4 0.1 15.35 0.0 15.35 0.0 13.25 0.1 13.35 6.4 9.65 9.0 8.7 12.45 7.9 16.3 7.0 16.75 6.8 M13.8 14.8 L14.65 14.65 18.9 21.05 16.25 21.0 17.05 20.35 Q16.05 19.45 14.9 18.8 14.35 18.55 14.15 18.0 13.95 17.55 14.05 17.1 L14.45 15.35 13.9 15.65 13.8 14.8 M6.35 14.35 L6.25 14.05 Q5.45 12.35 3.55 12.85 3.25 13.0 3.05 13.25 1.7 14.65 3.25 15.8 L3.65 15.95 Q5.5 15.75 6.35 14.35" fill="#e3fbff" fill-rule="evenodd" stroke="none"/>
      <path d="M16.75 6.6 L16.75 6.8 16.3 7.0 12.45 7.9 9.0 8.7 10.05 7.45 16.4 6.25 16.75 6.6 M0.0 11.1 L0.4 11.2 3.65 9.55 6.4 9.65 0.1 13.35 0.0 13.25 0.0 11.1" fill="#9bb7c9" fill-rule="evenodd" stroke="none"/>
      <path d="M6.0 11.05 L6.9 11.25 15.35 14.35 14.65 14.65 13.8 14.8 11.9 14.55 Q12.15 15.55 11.4 16.4 L10.6 17.2 9.55 18.4 Q9.25 18.8 9.35 19.3 9.45 20.0 9.95 20.55 10.95 21.45 12.35 22.1 12.35 22.4 11.2 22.65 L8.55 22.95 6.6 23.3 6.3 23.1 7.1 22.75 7.2 21.85 7.1 20.1 Q7.1 19.35 7.45 18.8 8.5 17.05 8.95 15.0 8.15 13.4 6.4 12.85 5.5 12.55 5.2 11.75 L6.0 11.05 M0.0 17.6 L2.95 17.65 Q4.1 18.65 5.5 18.25 L6.7 17.9 Q6.65 18.4 5.75 18.8 3.3 19.8 0.75 19.9 L0.0 19.9 0.0 17.6" fill="#afcfe3" fill-rule="evenodd" stroke="none"/>
      <path d="M0.0 15.35 L0.1 15.35 0.75 15.4 1.65 15.45 Q2.85 15.85 3.9 16.5 5.6 17.5 7.6 17.5 L6.7 17.9 5.5 18.25 Q4.1 18.65 2.95 17.65 L0.0 17.6 0.0 15.35" fill="#6d8b9e" fill-rule="evenodd" stroke="none"/>
      <path d="M12.35 22.1 Q10.95 21.45 9.95 20.55 9.45 20.0 9.35 19.3 9.25 18.8 9.55 18.4 L10.6 17.2 11.4 16.4 Q12.15 15.55 11.9 14.55 L13.8 14.8 13.9 15.65 14.45 15.35 14.05 17.1 Q13.95 17.55 14.15 18.0 14.35 18.55 14.9 18.8 16.05 19.45 17.05 20.35 L16.25 21.0 14.35 21.4 12.35 22.1" fill="#8299a8" fill-rule="evenodd" stroke="none"/>
      <path d="M6.9 11.25 L16.45 8.2" fill="none" stroke="#241a12" stroke-linecap="round" stroke-linejoin="round" stroke-width="1.0"/>
    </g>
  </defs>
</svg>
